X: 16
M:3/4
L:1/8
K:C
"Moderato"A2|G2 A2 A2|A2 B2 AG|A2 B2 d2|e2 ^f2 g2|d2 B2 BA|G4 ed|
|:ed|e2 a2 a2|a2 b2 ag|a4 ba|g2 e2 g2|d2 B2 BA|G4 ed|

